X:1
T: The Ballydesmond 2
R: polka
M: 2/4
L: 1/8
K: Ador
|:"Am"cd/c/ "G"Bc/B/|"A"AB/A/ "Em" G>A|"G"Bd ed|g2 gd|
"Am"e/g/a "G"ge|"G"dB GA/B/|"Am"ce "Em"dB|"Am"A2 A2:|
|:"Am"ea ag/e/|"G"dg ge/d/|"Am"ea ab|"Em"g2 ed|
"Am"ea "Em"g/a/g/e/|"G"dB GA/B/|"Am"ce "Em"dB|"Am"A2 A2:|
